src/assets/expertise/cloud/youtube.svg

<?xml version="1.0" encoding="UTF-8"?>
<svg width="24px" height="24px" viewBox="0 0 24 24" version="1.1" xmlns="http://www.w3.org/2000/svg" xmlns:xlink="http://www.w3.org/1999/xlink">
    <!-- Generator: sketchtool 60 (101010) - https://sketch.com -->
    <title>1D7CB825-0C20-47F3-9B26-1678D475009B</title>
    <desc>Created with sketchtool.</desc>
    <g id="Symbols" stroke="none" stroke-width="1" fill="none" fill-rule="evenodd">
        <g id="web/footer" transform="translate(-1112.000000, -176.000000)">
            <g id="icons/social/youtube">
                <g transform="translate(1112.000000, 176.000000)">
                    <g id="icons/social/facebook" fill="#CACCD8">
                        <circle id="Oval" cx="12" cy="12" r="12"></circle>
                    </g>
                    <g id="instagram" transform="translate(5.000000, 5.000000)"></g>
                    <g id="youtube" transform="translate(4.000000, 6.000000)" fill="#FFFFFF">
                        <path d="M15.6656645,1.81236848 C15.481651,1.13489452 14.9394837,0.60133723 14.2510959,0.420266918 C13.0033435,0.0912408759 8,0.0912408759 8,0.0912408759 C8,0.0912408759 2.9966858,0.0912408759 1.74890412,0.420266918 C1.06051628,0.601365876 0.518348977,1.13489452 0.334335529,1.81236848 C0,3.04032942 0,5.60235546 0,5.60235546 C0,5.60235546 0,8.1643815 0.334335529,9.39234244 C0.518348977,10.0698164 1.06051628,10.5811445 1.74890412,10.7622148 C2.9966858,11.0912409 8,11.0912409 8,11.0912409 C8,11.0912409 13.0033142,11.0912409 14.2510959,10.7622148 C14.9394837,10.5811445 15.481651,10.0698164 15.6656645,9.39234244 C16,8.1643815 16,5.60235546 16,5.60235546 C16,5.60235546 16,3.04032942 15.6656645,1.81236848 Z M6.36362504,7.92848306 L6.36362504,3.27622786 L10.5454266,5.60241275 L6.36362504,7.92848306 Z" id="Shape"></path>
                    </g>
                </g>
            </g>
        </g>
    </g>
</svg>

<svg xmlns="http://www.w3.org/2000/svg" width="24" height="24" viewBox="0 0 24 24">
    <g fill="none" fill-rule="evenodd">
        <g>
            <g>
                <g>
                    <g fill="#CACCD8" transform="translate(-1112 -5604) translate(0 5428) translate(1112 176)">
                        <circle cx="12" cy="12" r="12"/>
                    </g>
                    <g fill="#FFF">
                        <path d="M15.666 1.812c-.184-.677-.727-1.21-1.415-1.392C13.003.091 8 .091 8 .091s-5.003 0-6.251.33C1.06.6.519 1.134.334 1.811 0 3.04 0 5.602 0 5.602s0 2.562.334 3.79c.184.678.727 1.19 1.415 1.37 1.248.33 6.251.33 6.251.33s5.003 0 6.251-.33c.688-.18 1.23-.692 1.415-1.37C16 8.164 16 5.602 16 5.602s0-2.562-.334-3.79zM6.364 7.928V3.276l4.181 2.326-4.181 2.326z" transform="translate(-1112 -5604) translate(0 5428) translate(1112 176) translate(4 6)"/>
                    </g>
                </g>
            </g>
        </g>
    </g>
</svg>
